front/public/static/landing/logos/gray/didomi.svg

<svg fill="none" height="300" viewBox="0 0 600 300" width="600" xmlns="http://www.w3.org/2000/svg"><g fill="#364153"><path clip-rule="evenodd" d="m96 184.975c0 .63.5111 1.141 1.1415 1.141h31.3735c7.643 0 14.431-1.442 20.336-4.36l.01-.005c5.895-2.982 10.529-7.132 13.868-12.448l.004-.006c3.35-5.401 5.006-11.699 5.006-18.853 0-7.217-1.655-13.519-5.01-18.859-3.34-5.317-7.975-9.435-13.873-12.352-5.906-2.986-12.696-4.461-20.341-4.461h-31.3735c-.6304 0-1.1415.511-1.1415 1.141zm50.573-23.767-.008.015c-1.728 3.024-4.193 5.371-7.424 7.05-3.161 1.61-6.954 2.438-11.415 2.438h-13.46v-40.534h13.46c4.457 0 8.245.859 11.403 2.531l.012.006.012.006c3.225 1.612 5.686 3.924 7.412 6.945l.006.01.008.013c1.78 2.947 2.697 6.516 2.697 10.756 0 4.169-.915 7.744-2.703 10.764z" fill-rule="evenodd"/><path d="m181.711 184.975c0 .63.511 1.141 1.141 1.141h15.983c.631 0 1.142-.511 1.142-1.141v-69.062c0-.63-.511-1.141-1.142-1.141-9.458 0-17.127 7.665-17.128 17.124-.001 17.693.004 35.386.004 53.079z"/><path clip-rule="evenodd" d="m216.344 184.975c0 .63.511 1.141 1.142 1.141h31.373c7.643 0 14.432-1.442 20.337-4.36l.009-.005c5.896-2.982 10.529-7.132 13.869-12.448l.004-.006c3.35-5.401 5.005-11.699 5.005-18.853 0-7.217-1.654-13.519-5.009-18.859-3.34-5.317-7.975-9.435-13.874-12.352-5.906-2.986-12.696-4.461-20.341-4.461h-31.373c-.631 0-1.142.511-1.142 1.141zm43.153-52.255c3.225 1.612 5.686 3.924 7.412 6.945l.006.01.008.013c1.781 2.947 2.697 6.516 2.697 10.756 0 4.169-.914 7.744-2.702 10.764l-.009.015c-1.728 3.024-4.192 5.371-7.424 7.05-3.161 1.61-6.954 2.438-11.415 2.438h-13.46v-40.534h13.46c4.457 0 8.245.859 11.404 2.531l.011.006z" fill-rule="evenodd"/><path clip-rule="evenodd" d="m323.611 184.014.006.003c4.733 1.8 9.852 2.694 15.345 2.694 5.429 0 10.455-.895 15.063-2.698 4.653-1.795 8.694-4.297 12.107-7.51 3.476-3.275 6.185-7.122 8.122-11.53l.003-.006c1.941-4.487 2.907-9.332 2.907-14.523 0-5.251-.964-10.068-2.912-14.435-1.935-4.405-4.642-8.249-8.115-11.523-3.413-3.279-7.456-5.815-12.113-7.611-4.61-1.804-9.668-2.698-15.159-2.698-5.43 0-10.486.895-15.157 2.697-4.658 1.797-8.731 4.332-12.208 7.608-3.476 3.276-6.184 7.122-8.121 11.53l-.006.014c-1.876 4.423-2.807 9.233-2.807 14.418s.931 9.996 2.807 14.418l.006.014c1.935 4.403 4.607 8.247 8.016 11.522l.008.008c3.477 3.276 7.55 5.812 12.208 7.608zm23.159-14.484-.01.004c-2.364.97-4.991 1.464-7.895 1.464-2.903 0-5.566-.493-8.002-1.468-2.438-.975-4.565-2.373-6.389-4.195-1.759-1.822-3.163-3.984-4.208-6.498-.975-2.567-1.468-5.361-1.468-8.393 0-3.102.495-5.893 1.467-8.389 1.042-2.51 2.476-4.671 4.299-6.495 1.83-1.829 3.929-3.229 6.303-4.204 2.435-.973 5.097-1.466 7.998-1.466 2.903 0 5.566.494 8.002 1.468 2.438.975 4.528 2.371 6.285 4.188l.014.014c1.82 1.821 3.22 3.978 4.198 6.484.003.008.006.015.009.023 1.033 2.492 1.559 5.279 1.559 8.377s-.526 5.885-1.559 8.377c-.003.008-.006.015-.009.023-.978 2.506-2.378 4.663-4.198 6.484-1.826 1.826-3.955 3.226-6.396 4.202z" fill-rule="evenodd"/><path d="m389.641 184.975c0 .63.51 1.141 1.139 1.141h14.997c.63 0 1.143-.511 1.143-1.141v-36.484l18.106 29.776c.207.34.577.548.976.548h7.202c.402 0 .775-.212.982-.557l18.22-30.6.079 37.319c.003.629.513 1.139 1.142 1.139h14.997c.303 0 .594-.121.807-.335.216-.215.335-.507.332-.81v-69.061c0-.629-.51-1.138-1.139-1.138h-13.318c-.405 0-.778.212-.982.559l-24.463 41.241-24.882-41.248c-.207-.343-.577-.552-.977-.552h-13.222c-.629 0-1.139.511-1.139 1.141z"/><path d="m485.734 184.975c0 .63.513 1.141 1.143 1.141h15.982c.632 0 1.142-.511 1.142-1.141v-69.062c0-.63-.51-1.141-1.142-1.141-9.457 0-17.125 7.667-17.125 17.124z"/></g></svg>

<svg width="600" height="300" viewBox="0 0 600 300" fill="none" xmlns="http://www.w3.org/2000/svg">
<path fill-rule="evenodd" clip-rule="evenodd" d="M96 184.975C96 185.605 96.5111 186.116 97.1415 186.116H128.515C136.158 186.116 142.946 184.674 148.851 181.756L148.861 181.751C154.756 178.769 159.39 174.619 162.729 169.303L162.733 169.297C166.083 163.896 167.739 157.598 167.739 150.444C167.739 143.227 166.084 136.925 162.729 131.585C159.389 126.268 154.754 122.15 148.856 119.233C142.95 116.247 136.16 114.772 128.515 114.772H97.1415C96.5111 114.772 96 115.283 96 115.913V184.975ZM146.573 161.208L146.565 161.223C144.837 164.247 142.372 166.594 139.141 168.273C135.98 169.883 132.187 170.711 127.726 170.711H114.266V130.177H127.726C132.183 130.177 135.971 131.036 139.129 132.708L139.141 132.714L139.153 132.72C142.378 134.332 144.839 136.644 146.565 139.665L146.571 139.675L146.579 139.688C148.359 142.635 149.276 146.204 149.276 150.444C149.276 154.613 148.361 158.188 146.573 161.208Z" fill="#364153"/>
<path d="M181.711 184.975C181.711 185.605 182.222 186.116 182.852 186.116H198.835C199.466 186.116 199.977 185.605 199.977 184.975V115.913C199.977 115.283 199.466 114.772 198.835 114.772C189.377 114.772 181.708 122.437 181.707 131.896C181.706 149.589 181.711 167.282 181.711 184.975Z" fill="#364153"/>
<path fill-rule="evenodd" clip-rule="evenodd" d="M216.344 184.975C216.344 185.605 216.855 186.116 217.486 186.116H248.859C256.502 186.116 263.291 184.674 269.196 181.756L269.205 181.751C275.101 178.769 279.734 174.619 283.074 169.303L283.078 169.297C286.428 163.896 288.083 157.598 288.083 150.444C288.083 143.227 286.429 136.925 283.074 131.585C279.734 126.268 275.099 122.15 269.2 119.233C263.294 116.247 256.504 114.772 248.859 114.772H217.486C216.855 114.772 216.344 115.283 216.344 115.913V184.975ZM259.497 132.72C262.722 134.332 265.183 136.644 266.909 139.665L266.915 139.675L266.923 139.688C268.704 142.635 269.62 146.204 269.62 150.444C269.62 154.613 268.706 158.188 266.918 161.208L266.909 161.223C265.181 164.247 262.717 166.594 259.485 168.273C256.324 169.883 252.531 170.711 248.07 170.711H234.61V130.177H248.07C252.527 130.177 256.315 131.036 259.474 132.708L259.485 132.714L259.497 132.72Z" fill="#364153"/>
<path fill-rule="evenodd" clip-rule="evenodd" d="M323.611 184.014L323.617 184.017C328.35 185.817 333.469 186.711 338.962 186.711C344.391 186.711 349.417 185.816 354.025 184.013C358.678 182.218 362.719 179.716 366.132 176.503C369.608 173.228 372.317 169.381 374.254 164.973L374.257 164.967C376.198 160.48 377.164 155.635 377.164 150.444C377.164 145.193 376.2 140.376 374.252 136.009C372.317 131.604 369.61 127.76 366.137 124.486C362.724 121.207 358.681 118.671 354.024 116.875C349.414 115.071 344.356 114.177 338.865 114.177C333.435 114.177 328.379 115.072 323.708 116.874C319.05 118.671 314.977 121.206 311.5 124.482C308.024 127.758 305.316 131.604 303.379 136.012L303.373 136.026C301.497 140.449 300.566 145.259 300.566 150.444C300.566 155.629 301.497 160.44 303.373 164.862L303.379 164.876C305.314 169.279 307.986 173.123 311.395 176.398L311.403 176.406C314.88 179.682 318.953 182.218 323.611 184.014ZM346.77 169.53L346.76 169.534C344.396 170.504 341.769 170.998 338.865 170.998C335.962 170.998 333.299 170.505 330.863 169.53C328.425 168.555 326.298 167.157 324.474 165.335C322.715 163.513 321.311 161.351 320.266 158.837C319.291 156.27 318.798 153.476 318.798 150.444C318.798 147.342 319.293 144.551 320.265 142.055C321.307 139.545 322.741 137.384 324.564 135.56C326.394 133.731 328.493 132.331 330.867 131.356C333.302 130.383 335.964 129.89 338.865 129.89C341.768 129.89 344.431 130.384 346.867 131.358C349.305 132.333 351.395 133.729 353.152 135.546L353.166 135.56C354.986 137.381 356.386 139.538 357.364 142.044C357.367 142.052 357.37 142.059 357.373 142.067C358.406 144.559 358.932 147.346 358.932 150.444C358.932 153.542 358.406 156.329 357.373 158.821C357.37 158.829 357.367 158.836 357.364 158.844C356.386 161.35 354.986 163.507 353.166 165.328C351.34 167.154 349.211 168.554 346.77 169.53Z" fill="#364153"/>
<path d="M389.641 184.975C389.641 185.605 390.151 186.116 390.78 186.116H405.777C406.407 186.116 406.92 185.605 406.92 184.975V148.491L425.026 178.267C425.233 178.607 425.603 178.815 426.002 178.815H433.204C433.606 178.815 433.979 178.603 434.186 178.258L452.406 147.658L452.485 184.977C452.488 185.606 452.998 186.116 453.627 186.116H468.624C468.927 186.116 469.218 185.995 469.431 185.781C469.647 185.566 469.766 185.274 469.763 184.971V115.91C469.763 115.281 469.253 114.772 468.624 114.772H455.306C454.901 114.772 454.528 114.984 454.324 115.331L429.861 156.572L404.979 115.324C404.772 114.981 404.402 114.772 404.002 114.772H390.78C390.151 114.772 389.641 115.283 389.641 115.913V184.975Z" fill="#364153"/>
<path d="M485.734 184.975C485.734 185.605 486.247 186.116 486.877 186.116H502.859C503.491 186.116 504.001 185.605 504.001 184.975V115.913C504.001 115.283 503.491 114.772 502.859 114.772C493.402 114.772 485.734 122.439 485.734 131.896C485.734 149.589 485.734 167.282 485.734 184.975Z" fill="#364153"/>
</svg>
